X:1
T:Sunrise, 77.77.77
T:Sunrise, 77.77.77
T:Trier Gesangbuch, 1695
T:Public Domain Courtesy of the Cyber Hymnal™
C:Trier Gesangbuch, 1695
Z:Public Domain
Z:Courtesy of the Cyber Hymnal™
%%score ( 1 2 ) ( 3 4 )
L:1/8
Q:1/4=110
M:4/4
K:G
V:1 treble 
V:2 treble 
V:3 bass 
V:4 bass 
V:1
 [DB]2 [DB]2 [DA]2 [Dd]2 | [EG]2 [EA]2 [DF]4 | [DG]2 [B,D]2 (EF) [DG]2 | [EG]2 [DF]2 [DG]4 | %4
 [DF]2 [DG]2 [DA]2 [DA]2 | [DB]2 (AG) [DA]4 | [DB]2 B2 [EA]2 [Dd]2 | [Ed]2 ^c2 [Fd]4 | %8
 [DG]2 [FA]2 ([GB][FA]) [EG]2 | c2 [GB]2 A4 | [Gd]2 [Gd]2 (ed) (cB) | [GA]2 [FA]2 G4 |] %12
V:2
 x8 | x8 | x4 C2 x2 | x8 | x8 | x2 D2 x4 | x2 (GF) x4 | x2 (FG) x4 | x8 | (EF) x G2 F2 x | %10
 x4 G2 G2 | x4 G4 |] %12
V:3
 [G,,G,]2 [B,,G,]2 [D,F,]2 [F,A,]2 | B,2 [^C,A,]2 [D,A,]4 | [B,,G,]2 [G,,G,]2 (G,A,) [B,,B,]2 | %3
 [A,,C]2 [D,A,]2 [G,,B,]4 | [D,A,]2 [G,B,]2 [F,A,]2 [D,F,]2 | [G,,G,]2 [B,,G,]2 (G,2 F,2) | %6
 G,2 [E,B,]2 ([A,^C][G,B,]) [F,A,]2 | [G,B,]2 A,2 [F,A,]4 | [G,B,]2 [D,D]2 D2 [E,B,]2 | %9
 [A,C]2 D2 [D,D]4 | [B,,D]2 [G,,B,]2 ([C,C][D,B,]) ([E,C][D,D]) | [C,E]2 (DC) [G,B,]4 |] %12
V:4
 x8 | (E,D,) x6 | x4 C,2 x2 | x8 | x8 | x4 D,4 | G,2 x6 | x2 A,2 x4 | x4 (B,,D,) x2 | %9
 x2 (B,G,) x4 | x8 | x2 D,2 x4 |] %12

